src/ui/cloud.svg

<?xml version="1.0" encoding="UTF-8"?><svg xmlns="http://www.w3.org/2000/svg" viewBox="0 0 32 32"><defs><style>.uuid-0d67dfa1-a99d-4bdd-a44d-1d91642bc769{fill:none;}.uuid-0d67dfa1-a99d-4bdd-a44d-1d91642bc769,.uuid-e739bfdf-106a-4f1f-a04d-cb7f586c45f5{stroke-width:0px;}.uuid-e739bfdf-106a-4f1f-a04d-cb7f586c45f5{fill:#151515;}</style></defs><g id="uuid-1d17b1ad-c95c-44e1-b7dd-c1f994cd1c50"><rect class="uuid-0d67dfa1-a99d-4bdd-a44d-1d91642bc769" width="32" height="32"/></g><g id="uuid-11343e6e-442b-4672-9ef8-be2224283829"><path class="uuid-e739bfdf-106a-4f1f-a04d-cb7f586c45f5" d="M26.5,26H7.5c-4.1357,0-7.5-3.3643-7.5-7.5s3.3643-7.5,7.5-7.5c.4326,0,.8623.0371,1.2861.1104,1.5498-3.6904,5.1436-6.1104,9.2139-6.1104,5.5137,0,10,4.4858,10,10,0,.0752-.001.1514-.0029.2285,2.3389.6523,4.0029,2.7715,4.0029,5.2715,0,3.0327-2.4678,5.5-5.5,5.5ZM7.5,13c-3.0322,0-5.5,2.4673-5.5,5.5s2.4678,5.5,5.5,5.5h19c1.9297,0,3.5-1.5703,3.5-3.5,0-1.7974-1.3594-3.2852-3.1621-3.4609-.2676-.0259-.5127-.1582-.6816-.3672s-.2461-.4771-.2148-.7437c.0352-.3052.0586-.6138.0586-.9282,0-4.4111-3.5889-8-8-8-3.5078,0-6.5732,2.2461-7.6279,5.5889-.165.5234-.7217.8164-1.248.6553-.5264-.1621-1.0723-.2441-1.624-.2441Z"/></g></svg>

<svg xmlns="http://www.w3.org/2000/svg" viewBox="0 0 32 32">
  <path d="M0 0h32v32H0z" fill="none"/>
  <path d="M26.5 26h-19C3.364 26 0 22.636 0 18.5S3.364 11 7.5 11c.433 0 .862.037 1.286.11A9.956 9.956 0 0 1 18 5c5.514 0 10 4.486 10 10l-.003.229A5.46 5.46 0 0 1 32 20.5c0 3.033-2.468 5.5-5.5 5.5Zm-19-13C4.468 13 2 15.467 2 18.5S4.468 24 7.5 24h19c1.93 0 3.5-1.57 3.5-3.5a3.476 3.476 0 0 0-3.162-3.46 1 1 0 0 1-.896-1.112A8.08 8.08 0 0 0 26 15c0-4.411-3.589-8-8-8a7.966 7.966 0 0 0-7.628 5.589 1 1 0 0 1-1.248.655A5.51 5.51 0 0 0 7.5 13Z" fill="#151515"/>
</svg>
